X: 19282
T: Ivy Leaf, The
R: reel
M: 4/4
K: Amixolydian
|:A2 ed cdec|Aece dBGB|A2 ed cdeB|BGEF GABG|
A2 ed cdec|Aece dBGB|A2 ed cdeB|BGEF GABd:|
|:eaag edBd|efge dGBd|eaag edBd|BGEF GABd|
eaag edBd|efge deBG|A3B =c3d|eaag edBG:|

